white/wings.svg

<!-- Generated by IcoMoon.io -->
<svg version="1.1" xmlns="http://www.w3.org/2000/svg" width="32" height="32" viewBox="0 0 32 32">
<title>wings</title>
<path fill="#fff" d="M16.895 17.299l-8.625 6.694 15.81-6.766 0.065-3.264 1.855 0.513-1.414-3.146-3.818 2.963-2.719-4.674-12.049-0.619 9.183 2.461 0.233 0.795-8.028-0.413 7.224 1.935 1.247 4.325zM16 32c-8.837 0-16-7.163-16-16s7.163-16 16-16 16 7.163 16 16-7.163 16-16 16z"></path>
<path fill="#fff" opacity="0.7" d="M16.895 17.299l-1.036 0.804-1.247-4.325-7.224-1.935 8.028 0.413z"></path>
<path fill="#fff" opacity="0.3" d="M16.895 17.299l0.778 2.652 4.327-1.833-13.73 5.875zM20.768 14.293l3.818-2.963 1.414 3.146-1.855-0.513-0.065 3.264-1.285 0.55z"></path>
</svg>

<svg height="32" viewBox="0 0 32 32" width="32" xmlns="http://www.w3.org/2000/svg"><g fill="#fff" fill-rule="evenodd"><path d="M16.895 17.299L8.27 23.993 22 18.118l.796-.338-.001-.003 1.285-.55.065-3.264 1.855.513-1.414-3.146-3.818 2.963-2.719-4.674L6 9l9.183 2.461.233.795-8.028-.413 7.224 1.935 1.247 4.325zM16 32C7.163 32 0 24.837 0 16S7.163 0 16 0s16 7.163 16 16-7.163 16-16 16z"/><g fill-rule="nonzero"><path d="M16.895 17.299l-1.036.804-1.247-4.325-7.224-1.935 8.028.413z" fill-opacity=".7"/><path d="M16.895 17.299l.778 2.652L22 18.118 8.27 23.993zm3.873-3.006l3.818-2.963L26 14.476l-1.855-.513-.065 3.264-1.285.55z" fill-opacity=".3"/></g></g></svg>
